assets/img/burger.svg

<svg width="32" height="32" viewBox="0 0 32 32" fill="none" xmlns="http://www.w3.org/2000/svg">
<path fill-rule="evenodd" clip-rule="evenodd" d="M4.61866 27.38C6.57332 29.3334 9.71466 29.3334 16 29.3334C22.2853 29.3334 25.428 29.3334 27.38 27.38C29.3333 25.4294 29.3333 22.2854 29.3333 16C29.3333 9.71469 29.3333 6.57202 27.38 4.61869C25.4293 2.66669 22.2853 2.66669 16 2.66669C9.71466 2.66669 6.57199 2.66669 4.61866 4.61869C2.66666 6.57335 2.66666 9.71469 2.66666 16C2.66666 22.2854 2.66666 25.428 4.61866 27.38ZM25 21.3334C25 21.5986 24.8946 21.8529 24.7071 22.0405C24.5196 22.228 24.2652 22.3334 24 22.3334H7.99999C7.73477 22.3334 7.48042 22.228 7.29288 22.0405C7.10535 21.8529 6.99999 21.5986 6.99999 21.3334C6.99999 21.0681 7.10535 20.8138 7.29288 20.6262C7.48042 20.4387 7.73477 20.3334 7.99999 20.3334H24C24.2652 20.3334 24.5196 20.4387 24.7071 20.6262C24.8946 20.8138 25 21.0681 25 21.3334ZM24 17C24.2652 17 24.5196 16.8947 24.7071 16.7071C24.8946 16.5196 25 16.2652 25 16C25 15.7348 24.8946 15.4805 24.7071 15.2929C24.5196 15.1054 24.2652 15 24 15H7.99999C7.73477 15 7.48042 15.1054 7.29288 15.2929C7.10535 15.4805 6.99999 15.7348 6.99999 16C6.99999 16.2652 7.10535 16.5196 7.29288 16.7071C7.48042 16.8947 7.73477 17 7.99999 17H24ZM25 10.6667C25 10.9319 24.8946 11.1863 24.7071 11.3738C24.5196 11.5613 24.2652 11.6667 24 11.6667H7.99999C7.73477 11.6667 7.48042 11.5613 7.29288 11.3738C7.10535 11.1863 6.99999 10.9319 6.99999 10.6667C6.99999 10.4015 7.10535 10.1471 7.29288 9.95958C7.48042 9.77204 7.73477 9.66669 7.99999 9.66669H24C24.2652 9.66669 24.5196 9.77204 24.7071 9.95958C24.8946 10.1471 25 10.4015 25 10.6667Z" fill="black"/>
</svg>

<svg width="32" height="32" fill="none" xmlns="http://www.w3.org/2000/svg"><path fill-rule="evenodd" clip-rule="evenodd" d="M4.619 27.38C6.573 29.333 9.715 29.333 16 29.333s9.428 0 11.38-1.953c1.953-1.95 1.953-5.095 1.953-11.38 0-6.285 0-9.428-1.953-11.381C25.43 2.667 22.285 2.667 16 2.667c-6.285 0-9.428 0-11.381 1.952C2.667 6.573 2.667 9.715 2.667 16s0 9.428 1.952 11.38ZM25 21.333a1 1 0 0 1-1 1H8a1 1 0 0 1 0-2h16a1 1 0 0 1 1 1ZM24 17a1 1 0 1 0 0-2H8a1 1 0 0 0 0 2h16Zm1-6.333a1 1 0 0 1-1 1H8a1 1 0 0 1 0-2h16a1 1 0 0 1 1 1Z" fill="#000"/></svg>
